icons/pharmacy_alt_fill.svg

<svg width="48" height="48" viewBox="0 0 48 48" fill="none" xmlns="http://www.w3.org/2000/svg">
<path fill-rule="evenodd" clip-rule="evenodd" d="M16 32V42H32V32H42V16H32V6H16V16H6V32H16ZM26.5001 16.5029L23.8708 16.5029C23.7301 16.5029 23.6444 16.527 23.5979 16.5497C22.7625 16.9573 22.2394 17.6764 21.9175 18.528C21.8583 18.6846 21.8068 18.8436 21.7622 19.0029H19.7045C19.786 18.6158 19.8971 18.2165 20.0467 17.8209C20.4893 16.6497 21.2959 15.4476 22.7209 14.7523C23.1149 14.56 23.5214 14.503 23.8708 14.5029L26.5001 14.5029C27.0523 14.5029 27.5001 14.9506 27.5001 15.5029C27.5001 16.0552 27.0523 16.5029 26.5001 16.5029ZM18 20.0029C17.4478 20.0029 16.9874 20.4588 17.1366 20.9906C17.7143 23.05 20.0631 24.6522 23.0001 24.9523V26.5105C22.3051 26.5275 21.5829 26.5829 20.9705 26.7612C20.492 26.9005 19.9849 27.1393 19.5969 27.575C19.1907 28.0312 19 28.6074 19 29.25C19 29.8932 19.1902 30.47 19.5958 30.9272C19.9836 31.3641 20.4906 31.6038 20.9696 31.7437C21.2897 31.8372 21.6397 31.897 22 31.9353V29.9217C21.8289 29.8972 21.6722 29.8653 21.5305 29.8239C21.2595 29.7448 21.1415 29.6558 21.0918 29.5997C21.0599 29.5638 21 29.4833 21 29.25C21 29.0191 21.0594 28.9401 21.0907 28.905C21.1402 28.8493 21.2581 28.7605 21.5296 28.6814C21.9135 28.5697 22.4074 28.5277 23.0001 28.5121V29.9938C23.0001 29.9938 23.0001 29.9938 23.0001 29.9938L23 31.9954C23 31.9954 23 31.9954 23 31.9954L23.0001 34.0029H20.0001V36.0029H28.0001V34.0029H25.0001V28.4661C26.1018 28.3797 26.9948 28.1376 27.6667 27.7046C28.6123 27.0953 29 26.1881 29 25.2252C29 24.7019 28.8853 24.199 28.6292 23.7536C29.754 23.0448 30.5574 22.0819 30.8635 20.9906C31.0127 20.4588 30.5523 20.0029 30.0001 20.0029H18C18 20.0029 18 20.0029 18 20.0029ZM25.0001 26.4584C25.8089 26.3795 26.3 26.2061 26.5833 26.0235C26.8878 25.8272 27 25.5956 27 25.2252C27 24.9436 26.9363 24.7528 26.7715 24.5957C26.2147 24.7674 25.6205 24.8889 25.0001 24.9523V26.4584Z" fill="black"/>
</svg>

<svg
  xmlns="http://www.w3.org/2000/svg"
  width="24"
  height="24"
  viewBox="0 0 24 24"
  fill="none"
  stroke="currentColor"
  stroke-width="2"
  stroke-linecap="round"
  stroke-linejoin="round"
>
  <path
    fill-rule="evenodd"
    d="M16 32v10h16V32h10V16H32V6H16v10H6v16zm10.5-15.497h-2.63a.6.6 0 0 0-.272.047c-.835.407-1.359 1.126-1.68 1.978q-.09.236-.156.475h-2.058c.082-.387.193-.787.343-1.182.442-1.171 1.249-2.373 2.674-3.069.394-.192.8-.249 1.15-.25h2.63a1 1 0 0 1 0 2m-8.5 3.5c-.552 0-1.013.456-.863.988.577 2.059 2.926 3.661 5.863 3.961v1.558c-.695.017-1.417.073-2.03.251-.478.14-.985.378-1.373.814-.406.456-.597 1.032-.597 1.675s.19 1.22.596 1.677c.388.437.895.677 1.374.817.32.093.67.153 1.03.191v-2.013a3.4 3.4 0 0 1-.47-.098c-.27-.08-.389-.168-.438-.224-.032-.036-.092-.117-.092-.35 0-.23.06-.31.09-.345.05-.056.168-.145.44-.224.383-.111.877-.153 1.47-.169v5.491h-3v2h8v-2h-3v-5.537c1.102-.086 1.995-.328 2.667-.761.945-.61 1.333-1.517 1.333-2.48 0-.523-.115-1.026-.37-1.471 1.124-.71 1.927-1.672 2.233-2.763.15-.532-.31-.988-.863-.988zm7 6.455c.809-.078 1.3-.252 1.583-.434.305-.197.417-.428.417-.799 0-.281-.064-.472-.229-.63a9 9 0 0 1-1.77.357z"
    clip-rule="evenodd"
  />
</svg>
